src/lib/packages/icons/src/assets/filled/envelope-heart.svg

<svg width="24" height="24" viewBox="0 0 24 24" fill="none" xmlns="http://www.w3.org/2000/svg">
<path d="M16.96 13C17.57 13 18.08 13.16 18.5 13.41C18.844 13.209 19.25 13.064 19.72 13.016C19.876 13 20 12.879 20 12.723V7C20 5 19 4 17 4H5C3 4 2 5 2 7V16C2 18 3 19 5 19H13.6001C13.8771 19 13.9501 18.753 13.8931 18.624C13.7601 18.319 13.6601 17.995 13.5901 17.65C13.3401 16.34 13.6101 15.09 14.3301 14.2C14.9601 13.43 15.89 13 16.96 13ZM12.0291 12.179C11.7211 12.403 11.36 12.515 11 12.515C10.64 12.515 10.2779 12.403 9.97095 12.18L5.05908 8.60699C4.72408 8.36399 4.65004 7.89401 4.89404 7.55901C5.13704 7.22601 5.60389 7.149 5.94189 7.394L10.854 10.966C10.942 11.029 11.059 11.03 11.147 10.966L16.0591 7.394C16.3961 7.149 16.8639 7.22501 17.1069 7.55901C17.3509 7.89401 17.2769 8.36299 16.9419 8.60699L12.0291 12.179ZM21.938 17.354C21.482 19.667 18.5039 21 18.5039 21C18.5039 21 15.5261 19.668 15.0701 17.354C14.7901 15.935 15.402 14.507 16.957 14.5C18.115 14.495 18.5039 15.643 18.5039 15.643C18.5039 15.643 18.893 14.495 20.051 14.5C21.61 14.507 22.218 15.935 21.938 17.354Z" fill="currentColor"/>
</svg>

<svg xmlns="http://www.w3.org/2000/svg" width="24" height="24" fill="none"><path fill="currentColor" d="M16.96 13c.61 0 1.12.16 1.54.41.344-.201.75-.346 1.22-.394.156-.016.28-.137.28-.293V7c0-2-1-3-3-3H5C3 4 2 5 2 7v9c0 2 1 3 3 3h8.6c.277 0 .35-.247.293-.376a4.827 4.827 0 0 1-.303-.974c-.25-1.31.02-2.56.74-3.45.63-.77 1.56-1.2 2.63-1.2Zm-4.93-.821a1.748 1.748 0 0 1-2.059.001L5.059 8.607a.75.75 0 1 1 .883-1.213l4.912 3.572a.25.25 0 0 0 .293 0l4.912-3.572a.75.75 0 1 1 .883 1.213l-4.913 3.572Zm9.908 5.175C21.482 19.667 18.504 21 18.504 21s-2.978-1.332-3.434-3.646c-.28-1.419.332-2.847 1.887-2.854 1.158-.005 1.547 1.143 1.547 1.143s.389-1.148 1.547-1.143c1.559.007 2.167 1.435 1.887 2.854Z"/></svg>
